X: 21632
T: Killavil, The
R: jig
M: 6/8
K: Eminor
|:BEE BEE|Bdf edB|BAF FEF|DFA dBA|
BEE GFE|Bdf edB|BAF FAG|FED E3:|
|:Bef gfe|~f2f edB|BAF FEF|DFA BAF|
Bef gfe|~f2f edB|BAB dAF|FED E3:|

